src/assets/filled/Airplane.svg

<svg width="24" height="24" viewBox="0 0 24 24"  xmlns="http://www.w3.org/2000/svg">
<path d="M20.0501 10.6301L15.3801 8.62006L14.3401 8.18006C14.1801 8.10006 14.0401 7.89006 14.0401 7.71006V4.65006C14.0401 3.69006 13.3301 2.55006 12.4701 2.11006C12.1701 1.96006 11.8101 1.96006 11.5101 2.11006C10.6601 2.55006 9.95006 3.70006 9.95006 4.66006V7.72006C9.95006 7.90006 9.81006 8.11006 9.65006 8.19006L3.95006 10.6401C3.32006 10.9001 2.81006 11.6901 2.81006 12.3701V13.6901C2.81006 14.5401 3.45006 14.9601 4.24006 14.6201L9.25006 12.4601C9.64006 12.2901 9.96006 12.5001 9.96006 12.9301V14.0401V15.8401C9.96006 16.0701 9.83006 16.4001 9.67006 16.5601L7.35006 18.8901C7.11006 19.1301 7.00006 19.6001 7.11006 19.9401L7.56006 21.3001C7.74006 21.8901 8.41006 22.1701 8.96006 21.8901L11.3401 19.8901C11.7001 19.5801 12.2901 19.5801 12.6501 19.8901L15.0301 21.8901C15.5801 22.1601 16.2501 21.8901 16.4501 21.3001L16.9001 19.9401C17.0101 19.6101 16.9001 19.1301 16.6601 18.8901L14.3401 16.5601C14.1701 16.4001 14.0401 16.0701 14.0401 15.8401V12.9301C14.0401 12.5001 14.3501 12.3001 14.7501 12.4601L19.7601 14.6201C20.5501 14.9601 21.1901 14.5401 21.1901 13.6901V12.3701C21.1901 11.6901 20.6801 10.9001 20.0501 10.6301Z" />
</svg>

<?xml version="1.0" encoding="UTF-8"?>
<svg width="24" height="24" viewBox="0 0 24 24" xmlns="http://www.w3.org/2000/svg">
 <path d="m20.05 10.63-4.67-2.01-1.04-0.44c-0.16-0.08-0.3-0.29-0.3-0.47v-3.06c0-0.96-0.71-2.1-1.57-2.54-0.3-0.15-0.66-0.15-0.96 0-0.85 0.44-1.56 1.59-1.56 2.55v3.06c0 0.18-0.14 0.39-0.3 0.47l-5.7 2.45c-0.63 0.26-1.14 1.05-1.14 1.73v1.32c0 0.85 0.64 1.27 1.43 0.93l5.01-2.16c0.39-0.17 0.71 0.04 0.71 0.47v2.91c0 0.23-0.13 0.56-0.29 0.72l-2.32 2.33c-0.24 0.24-0.35 0.71-0.24 1.05l0.45 1.36c0.18 0.59 0.85 0.87 1.4 0.59l2.38-2c0.36-0.31 0.95-0.31 1.31 0l2.38 2c0.55 0.27 1.22 0 1.42-0.59l0.45-1.36c0.11-0.33 0-0.81-0.24-1.05l-2.32-2.33c-0.17-0.16-0.3-0.49-0.3-0.72v-2.91c0-0.43 0.31-0.63 0.71-0.47l5.01 2.16c0.79 0.34 1.43-0.08 1.43-0.93v-1.32c0-0.68-0.51-1.47-1.14-1.74z"/>
</svg>
